assets/Anatomical heart/Flat/anatomical_heart_flat.svg

<svg width="32" height="32" viewBox="0 0 32 32" fill="none" xmlns="http://www.w3.org/2000/svg">
<path d="M7.50001 4C6.11901 4 5.00001 5.119 5.00001 6.5V7.6L4.70701 7.293C4.31601 6.902 3.68301 6.902 3.29301 7.293C2.90201 7.684 2.90201 8.317 3.29301 8.707L8.00001 13L10 11.5V6.5C10 5.119 8.88101 4 7.50001 4Z" fill="#00A6ED"/>
<path d="M27.8503 10.7072L25.7073 12.8492C25.3173 13.2402 24.6832 13.2402 24.2932 12.8503C23.9022 12.4603 23.9022 11.8273 24.2932 11.4363L26.4363 9.29325C26.8263 8.90225 27.4593 8.90225 27.8503 9.29325C28.2413 9.68325 28.2413 10.3162 27.8503 10.7072Z" fill="#CA0B4A"/>
<path d="M26 15H28C28.552 15 29 14.552 29 14C29 13.448 28.552 13 28 13H26C25.448 13 25 13.448 25 14C25 14.552 25.448 15 26 15Z" fill="#CA0B4A"/>
<path d="M27 24.5C27 26.295 26.272 27.92 25.096 29.096C23.92 30.272 22.295 31 20.5 31C18.705 31 17.08 30.272 15.904 29.096L7.28303 21.902C5.83003 20.69 5.01303 18.878 5.06603 16.987L5.20703 12H11V9H20.811C24.229 9 27 11.771 27 15.189V24.5Z" fill="#F70A8D"/>
<path d="M24.189 24.371C24.741 24.371 25.189 23.923 25.189 23.371V15.06C25.189 13.155 23.912 11.544 22.17 11.037C21.586 10.867 21 11.307 21 11.915V12.1C21 12.518 21.295 12.85 21.691 12.983C22.56 13.273 23.189 14.095 23.189 15.061V23.372C23.189 23.923 23.637 24.371 24.189 24.371Z" fill="#FF6DC6"/>
<path d="M12.4547 7C7.78558 7 4 10.6795 4 15.2178V16.6261C4 19.0421 6.01433 21 8.5 21C10.9857 21 13 19.0421 13 16.6261V7H12.4547Z" fill="#FF6DC6"/>
<path d="M20.4755 5.50905C20.1738 5.25575 20.0572 4.8289 20.2421 4.481C20.5 3.997 20.3284 3.389 19.8591 3.123C19.3898 2.857 18.8003 3.034 18.5423 3.518L18.4908 3.61481C18.2793 4.01226 17.8336 4.2052 17.3904 4.12597C16.8929 4.03703 16.4838 3.62393 16.4838 3.1186V3C16.4838 2.448 16.0495 2 15.5142 2C14.979 2 14.5446 2.448 14.5446 3V3.56479C14.5446 3.89775 14.2999 4.18133 13.9783 4.26747C13.6808 4.34715 13.3651 4.24515 13.187 3.99393L12.4182 2.91C12.1021 2.464 11.4952 2.367 11.0637 2.693C10.6322 3.019 10.5372 3.645 10.8533 4.09L11.7356 5.335C10.6632 6.148 10 7.266 10 8.5C10 10.985 12.6858 13 16 13C19.3142 13 22 10.985 22 8.5C21.9992 7.35012 21.422 6.30359 20.4755 5.50905Z" fill="#CA0B4A"/>
<path d="M24.5 9C25.328 9 26 8.328 26 7.5C26 6.672 25.328 6 24.5 6H22C18.686 6 16 8.686 16 12V12.83C16 14.454 17.216 15.911 18.839 15.996C20.569 16.086 22 14.71 22 13V11.5C22 10.119 23.119 9 24.5 9Z" fill="#00A6ED"/>
</svg>

<svg xmlns="http://www.w3.org/2000/svg" width="32" height="32" fill="none"><path fill="#00A6ED" d="M7.5 4A2.5 2.5 0 0 0 5 6.5v1.1l-.293-.307a.999.999 0 1 0-1.414 1.414L8 13l2-1.5v-5A2.5 2.5 0 0 0 7.5 4Z"/><path fill="#CA0B4A" d="m27.85 10.707-2.143 2.142a1 1 0 1 1-1.414-1.413l2.143-2.143a.999.999 0 1 1 1.414 1.414Z"/><path fill="#CA0B4A" d="M26 15h2a1 1 0 0 0 0-2h-2a1 1 0 0 0 0 2Z"/><path fill="#F70A8D" d="M27 24.5a6.48 6.48 0 0 1-1.904 4.596A6.48 6.48 0 0 1 20.5 31a6.48 6.48 0 0 1-4.596-1.904l-8.621-7.194a6.176 6.176 0 0 1-2.217-4.915L5.207 12H11V9h9.811A6.19 6.19 0 0 1 27 15.189V24.5Z"/><path fill="#FF6DC6" d="M24.189 24.371a1 1 0 0 0 1-1V15.06a4.196 4.196 0 0 0-3.019-4.023.916.916 0 0 0-1.17.878v.185c0 .418.295.75.691.883a2.194 2.194 0 0 1 1.498 2.078v8.311a1 1 0 0 0 1 .999ZM12.455 7C7.785 7 4 10.68 4 15.218v1.408C4 19.042 6.014 21 8.5 21s4.5-1.958 4.5-4.374V7h-.545Z"/><path fill="#CA0B4A" d="M20.476 5.51c-.302-.254-.419-.681-.234-1.029a1.017 1.017 0 0 0-.383-1.358.955.955 0 0 0-1.317.395l-.051.097c-.212.397-.657.59-1.1.511-.498-.089-.907-.502-.907-1.007V3c0-.552-.435-1-.97-1-.535 0-.97.448-.97 1v.565c0 .333-.244.616-.566.702a.73.73 0 0 1-.791-.273l-.769-1.084a.95.95 0 0 0-1.354-.217 1.02 1.02 0 0 0-.21 1.397l.882 1.245C10.663 6.148 10 7.266 10 8.5c0 2.485 2.686 4.5 6 4.5s6-2.015 6-4.5c0-1.15-.578-2.196-1.524-2.99Z"/><path fill="#00A6ED" d="M24.5 9a1.5 1.5 0 0 0 0-3H22a6 6 0 0 0-6 6v.83c0 1.624 1.216 3.081 2.839 3.166A3 3 0 0 0 22 13v-1.5A2.5 2.5 0 0 1 24.5 9Z"/></svg>
